X: 13583
T: Flying Tiger, The
R: reel
M: 4/4
K: Adorian
|:eA ~A2 ABcA|BGGF GABG|Ae~e2 dcBA|EAAG cBAG|
eA ~A2 ABcA|BGGF GABG|c2dc BGBd|eAAG ABcd:|
|:ea~a2 agef|gdBA GABG|Ae ~e2 agef|~g3B d2ef|
ea~a2 agef|gdBA GABG|c2dc BGBd|eAAG ABcd:|

